X:1
T:Worship (Moravia), 86.86.88.86
T:Worship (Moravia), 86.86.88.86
T:German Tune
T:Public Domain Courtesy of the Cyber Hymnal™
C:German Tune
Z:Public Domain
Z:Courtesy of the Cyber Hymnal™
%%score ( 1 2 ) ( 3 4 )
L:1/8
Q:1/4=110
M:4/4
K:A
V:1 treble 
V:2 treble 
V:3 bass 
V:4 bass 
V:1
 [EA]2 | [EA]2 [CE]2 [DF]2 [DG]2 | [CA]2 [DF]2 [CE]2 [Gd]2 | [Ec]2 ([Ee][Fd]) [Ec]2 [EB]2 | %4
 [CA]6 [EA]2 | [EA]2 [CE]2 [DF]2 [DG]2 | [CA]2 [DF]2 [CE]2 [Gd]2 | [Ec]2 ([Ee][Fd]) [Ec]2 [EB]2 | %8
 [CA]6 [EA]2 | [EG]2 [FB]2 [EB]2 [EG]2 | ([EA][DB]) [Ec]2 [Ec]2 [EA]2 | [EG]2 [EB]2 [^DB]2 [EG]2 | %12
 ([EA][DB]) [Ec]2 [Ec]2 [EA]2 | [EA]2 [CE]2 [DF]2 [DG]2 | [CA]2 [DF]2 [CE]2 [Gd]2 | %15
 c2 ([Fe][Fd]) [Ec]2 B2 | [CA]6 |] %17
V:2
 x2 | x8 | x8 | x8 | x8 | x8 | x8 | x8 | x8 | x8 | x8 | x8 | x8 | x8 | x8 | (AE) x3 (ED) x | x6 |] %17
V:3
 [A,,C]2 | [C,A,]2 [A,,A,]2 [D,A,]2 [B,,E,]2 | (E,A,) [D,A,]2 A,2 [E,B,]2 | %3
 [A,,A,]2 A,2 [E,A,]2 [E,,G,]2 | [A,,E,]6 [A,,C]2 | [C,A,]2 [A,,A,]2 [D,A,]2 [B,,E,]2 | %6
 (E,A,) [D,A,]2 A,2 [E,B,]2 | [A,,A,]2 A,2 [E,A,]2 [E,,G,]2 | [A,,E,]6 [A,,C]2 | %9
 [E,B,]2 [B,,D]2 [G,,B,]2 B,2 | ([C,A,][B,,G,]) [A,,A,]2 [A,,A,]2 [A,,C]2 | %11
 [E,B,]2 [G,,B,]2 [B,,B,]2 B,2 | ([C,A,][B,,G,]) [A,,A,]2 [A,,A,]2 [A,,C]2 | %13
 [C,A,]2 [A,,A,]2 [D,A,]2 [B,,E,]2 | (E,A,) [D,B,]2 A,2 [E,B,]2 | A,2 A,2 [E,A,]2 [E,,G,]2 | %16
 [A,,E,]6 |] %17
V:4
 x2 | x8 | A,,2 x A,2 x3 | x2 (C,D,) x4 | x8 | x8 | A,,2 x A,2 x3 | x2 (C,D,) x4 | x8 | x6 (E,D,) | %10
 x8 | x6 (E,D,) | x8 | x8 | A,,2 x A,2 x3 | A,2 (C,D,) x4 | x6 |] %17

